work_district.lrtemplate
s = {
	id = "31068EC4-B645-4CA9-A86E-B4776C2A0582",
	internalName = "Заречье 2",
	title = "work_district",
	type = "Develop",
	value = {
		settings = {
			AutoLateralCA = 0,
			Blacks2012 = 100,
			BlueHue = -10,
			BlueSaturation = 7,
			CameraProfile = "160S - C",
			ChromaticAberrationB = 0,
			ChromaticAberrationR = 0,
			Clarity2012 = -11,
			ColorNoiseReduction = 25,
			ColorNoiseReductionDetail = 50,
			ColorNoiseReductionSmoothness = 50,
			Contrast2012 = -6,
			ConvertToGrayscale = false,
			CropConstrainToWarp = 0,
			Defringe = 0,
			DefringeGreenAmount = 0,
			DefringeGreenHueHi = 60,
			DefringeGreenHueLo = 40,
			DefringePurpleAmount = 0,
			DefringePurpleHueHi = 70,
			DefringePurpleHueLo = 30,
			EnableCalibration = true,
			EnableCircularGradientBasedCorrections = true,
			EnableColorAdjustments = true,
			EnableDetail = true,
			EnableEffects = true,
			EnableGradientBasedCorrections = true,
			EnableLensCorrections = true,
			EnableSplitToning = true,
			Exposure2012 = -0.45,
			GrainAmount = 0,
			GrainFrequency = 65,
			GrainSize = 40,
			GreenHue = 35,
			GreenSaturation = -10,
			Highlights2012 = -61,
			HueAdjustmentAqua = 10,
			HueAdjustmentBlue = -5,
			HueAdjustmentGreen = 15,
			HueAdjustmentMagenta = 20,
			HueAdjustmentOrange = 2,
			HueAdjustmentPurple = 20,
			HueAdjustmentRed = 15,
			HueAdjustmentYellow = 10,
			LensManualDistortionAmount = 0,
			LensProfileEnable = 0,
			LensProfileSetup = "LensDefaults",
			LuminanceAdjustmentAqua = 10,
			LuminanceAdjustmentBlue = -15,
			LuminanceAdjustmentGreen = 0,
			LuminanceAdjustmentMagenta = 15,
			LuminanceAdjustmentOrange = 0,
			LuminanceAdjustmentPurple = 20,
			LuminanceAdjustmentRed = 0,
			LuminanceAdjustmentYellow = 10,
			LuminanceNoiseReductionContrast = 0,
			LuminanceNoiseReductionDetail = 50,
			LuminanceSmoothing = 34,
			ParametricDarks = -7,
			ParametricHighlightSplit = 75,
			ParametricHighlights = 9,
			ParametricLights = 5,
			ParametricMidtoneSplit = 48,
			ParametricShadowSplit = 20,
			ParametricShadows = 26,
			PerspectiveAspect = 0,
			PerspectiveHorizontal = 0,
			PerspectiveRotate = 0,
			PerspectiveScale = 100,
			PerspectiveUpright = 0,
			PerspectiveVertical = 0,
			PostCropVignetteAmount = 0,
			PostCropVignetteFeather = 50,
			PostCropVignetteHighlightContrast = 0,
			PostCropVignetteMidpoint = 50,
			PostCropVignetteRoundness = 0,
			PostCropVignetteStyle = 1,
			ProcessVersion = "6.7",
			RedHue = 30,
			RedSaturation = 40,
			Saturation = -8,
			SaturationAdjustmentAqua = 0,
			SaturationAdjustmentBlue = -67,
			SaturationAdjustmentGreen = -35,
			SaturationAdjustmentMagenta = -49,
			SaturationAdjustmentOrange = -25,
			SaturationAdjustmentPurple = -50,
			SaturationAdjustmentRed = -20,
			SaturationAdjustmentYellow = -15,
			ShadowTint = -2,
			Shadows2012 = 28,
			SharpenDetail = 25,
			SharpenEdgeMasking = 34,
			SharpenRadius = 1,
			Sharpness = 64,
			SplitToningBalance = 0,
			SplitToningHighlightHue = 0,
			SplitToningHighlightSaturation = 0,
			SplitToningShadowHue = 0,
			SplitToningShadowSaturation = 0,
			Temperature = 4701,
			Tint = -5,
			ToneCurveName2012 = "UltraMax 400 ++",
			ToneCurvePV2012 = {
				0,
				47,
				43,
				54,
				79,
				75,
				134,
				133,
				189,
				188,
				255,
				245,
			},
			ToneCurvePV2012Blue = {
				0,
				0,
				32,
				19,
				78,
				66,
				113,
				117,
				174,
				198,
				255,
				255,
			},
			ToneCurvePV2012Green = {
				0,
				0,
				35,
				17,
				80,
				65,
				115,
				119,
				177,
				204,
				255,
				255,
			},
			ToneCurvePV2012Red = {
				0,
				0,
				27,
				11,
				81,
				64,
				116,
				122,
				175,
				201,
				255,
				255,
			},
			Vibrance = 0,
			VignetteAmount = 0,
			VignetteMidpoint = 50,
			WhiteBalance = "Custom",
			Whites2012 = 5,
			orientation = "AB",
		},
		uuid = "444658A8-CEAA-4ABE-923F-ED1B2A4582E7",
	},
	version = 0,
}
