work_black&white_noise.lrtemplate
s = {
	id = "A6B99813-7E08-438F-9A22-5BD34D27C60B",
	internalName = "work_black&white_noise",
	title = "work_black&white_noise",
	type = "Develop",
	value = {
		settings = {
			AutoLateralCA = 0,
			Blacks2012 = 100,
			BlueHue = -10,
			BlueSaturation = -100,
			CameraProfile = "Adobe Standard",
			ChromaticAberrationB = 0,
			ChromaticAberrationR = 0,
			Clarity2012 = 16,
			ColorNoiseReduction = 25,
			ColorNoiseReductionDetail = 50,
			ColorNoiseReductionSmoothness = 50,
			Contrast2012 = 9,
			ConvertToGrayscale = true,
			CropConstrainToWarp = 0,
			Defringe = 0,
			DefringeGreenAmount = 0,
			DefringeGreenHueHi = 60,
			DefringeGreenHueLo = 40,
			DefringePurpleAmount = 0,
			DefringePurpleHueHi = 70,
			DefringePurpleHueLo = 30,
			Dehaze = 0,
			EnableCalibration = true,
			EnableCircularGradientBasedCorrections = true,
			EnableDetail = true,
			EnableEffects = true,
			EnableGradientBasedCorrections = true,
			EnableGrayscaleMix = true,
			EnableLensCorrections = true,
			EnableSplitToning = true,
			Exposure2012 = -0.3,
			GrainAmount = 30,
			GrainFrequency = 60,
			GrainSize = 60,
			GrayMixerAqua = -20,
			GrayMixerBlue = -10,
			GrayMixerGreen = 15,
			GrayMixerMagenta = 5,
			GrayMixerOrange = -25,
			GrayMixerPurple = 16,
			GrayMixerRed = 10,
			GrayMixerYellow = 0,
			GreenHue = 35,
			GreenSaturation = -100,
			Highlights2012 = -100,
			LensManualDistortionAmount = 0,
			LensProfileEnable = 0,
			LensProfileSetup = "LensDefaults",
			LuminanceNoiseReductionContrast = 0,
			LuminanceNoiseReductionDetail = 50,
			LuminanceSmoothing = 34,
			ParametricDarks = 0,
			ParametricHighlightSplit = 75,
			ParametricHighlights = 0,
			ParametricLights = 0,
			ParametricMidtoneSplit = 48,
			ParametricShadowSplit = 20,
			ParametricShadows = 0,
			PerspectiveAspect = 0,
			PerspectiveHorizontal = 0,
			PerspectiveRotate = 0,
			PerspectiveScale = 100,
			PerspectiveUpright = 0,
			PerspectiveVertical = 0,
			PostCropVignetteAmount = -30,
			PostCropVignetteFeather = 50,
			PostCropVignetteHighlightContrast = 0,
			PostCropVignetteMidpoint = 45,
			PostCropVignetteRoundness = 0,
			PostCropVignetteStyle = 1,
			ProcessVersion = "6.7",
			RedHue = 30,
			RedSaturation = -8,
			ShadowTint = -2,
			Shadows2012 = 48,
			SharpenDetail = 25,
			SharpenEdgeMasking = 34,
			SharpenRadius = 1,
			Sharpness = 84,
			SplitToningBalance = 0,
			SplitToningHighlightHue = 0,
			SplitToningHighlightSaturation = 0,
			SplitToningShadowHue = 0,
			SplitToningShadowSaturation = 0,
			Temperature = 4300,
			Tint = 4,
			ToneCurveName2012 = "Custom",
			ToneCurvePV2012 = {
				0,
				47,
				43,
				54,
				79,
				75,
				134,
				133,
				189,
				188,
				255,
				245,
			},
			ToneCurvePV2012Blue = {
				0,
				0,
				26,
				13,
				82,
				64,
				116,
				122,
				175,
				202,
				255,
				255,
			},
			ToneCurvePV2012Green = {
				0,
				0,
				26,
				13,
				82,
				64,
				116,
				122,
				175,
				201,
				255,
				255,
			},
			ToneCurvePV2012Red = {
				0,
				0,
				26,
				13,
				82,
				64,
				116,
				122,
				175,
				201,
				255,
				255,
			},
			VignetteAmount = 0,
			VignetteMidpoint = 50,
			WhiteBalance = "Custom",
			Whites2012 = -90,
			orientation = "AB",
		},
		uuid = "10E022BF-EF16-4B54-9708-F7BC87C039A9",
	},
	version = 0,
}
