work_vintage_soul.lrtemplate
s = {
	id = "2BDE557D-ADB6-4E49-BD7C-7E2E878FE025",
	internalName = "work_vintage_soul",
	title = "work_vintage_soul",
	type = "Develop",
	value = {
		settings = {
			AutoLateralCA = 0,
			Blacks2012 = 0,
			BlueHue = 0,
			BlueSaturation = -40,
			CameraProfile = "TRI-X⁺¹ - N",
			ChromaticAberrationB = 0,
			ChromaticAberrationR = 0,
			Clarity2012 = 16,
			ColorNoiseReduction = 25,
			ColorNoiseReductionDetail = 50,
			ColorNoiseReductionSmoothness = 50,
			Contrast2012 = 22,
			ConvertToGrayscale = true,
			CropConstrainToWarp = 0,
			Defringe = 0,
			DefringeGreenAmount = 0,
			DefringeGreenHueHi = 60,
			DefringeGreenHueLo = 40,
			DefringePurpleAmount = 0,
			DefringePurpleHueHi = 70,
			DefringePurpleHueLo = 30,
			Dehaze = 0,
			EnableCalibration = true,
			EnableCircularGradientBasedCorrections = true,
			EnableDetail = true,
			EnableEffects = true,
			EnableGradientBasedCorrections = true,
			EnableGrayscaleMix = true,
			EnableLensCorrections = true,
			EnableSplitToning = true,
			EnableTransform = true,
			Exposure2012 = -0.45,
			GrainAmount = 30,
			GrainFrequency = 100,
			GrainSize = 20,
			GrayMixerAqua = -15,
			GrayMixerBlue = 10,
			GrayMixerGreen = -20,
			GrayMixerMagenta = 15,
			GrayMixerOrange = -12,
			GrayMixerPurple = 25,
			GrayMixerRed = 0,
			GrayMixerYellow = -8,
			GreenHue = 0,
			GreenSaturation = 5,
			Highlights2012 = -20,
			LensManualDistortionAmount = 0,
			LensProfileEnable = 0,
			LensProfileSetup = "LensDefaults",
			LuminanceNoiseReductionContrast = 0,
			LuminanceNoiseReductionDetail = 50,
			LuminanceSmoothing = 0,
			ParametricDarks = 0,
			ParametricHighlightSplit = 75,
			ParametricHighlights = 0,
			ParametricLights = 0,
			ParametricMidtoneSplit = 50,
			ParametricShadowSplit = 25,
			ParametricShadows = 0,
			PerspectiveAspect = 0,
			PerspectiveHorizontal = 0,
			PerspectiveRotate = 0,
			PerspectiveScale = 100,
			PerspectiveUpright = 0,
			PerspectiveVertical = 0,
			PerspectiveX = 0,
			PerspectiveY = 0,
			PostCropVignetteAmount = 0,
			PostCropVignetteFeather = 50,
			PostCropVignetteHighlightContrast = 0,
			PostCropVignetteMidpoint = 50,
			PostCropVignetteRoundness = 0,
			PostCropVignetteStyle = 1,
			ProcessVersion = "6.7",
			RedHue = 0,
			RedSaturation = 20,
			ShadowTint = 0,
			Shadows2012 = 0,
			SharpenDetail = 25,
			SharpenEdgeMasking = 0,
			SharpenRadius = 1,
			Sharpness = 25,
			SplitToningBalance = 0,
			SplitToningHighlightHue = 0,
			SplitToningHighlightSaturation = 0,
			SplitToningShadowHue = 48,
			SplitToningShadowSaturation = 9,
			ToneCurveName2012 = "Custom",
			ToneCurvePV2012 = {
				0,
				9,
				39,
				26,
				105,
				97,
				168,
				179,
				255,
				255,
			},
			ToneCurvePV2012Blue = {
				0,
				0,
				255,
				255,
			},
			ToneCurvePV2012Green = {
				0,
				0,
				255,
				255,
			},
			ToneCurvePV2012Red = {
				0,
				0,
				255,
				255,
			},
			UprightCenterMode = 0,
			UprightCenterNormX = 0.5,
			UprightCenterNormY = 0.5,
			UprightFocalLength35mm = 35,
			UprightFocalMode = 0,
			UprightFourSegmentsCount = 0,
			UprightPreview = false,
			UprightTransformCount = 6,
			UprightVersion = 151388160,
			VignetteAmount = 0,
			VignetteMidpoint = 50,
			WhiteBalance = "As Shot",
			Whites2012 = 28,
			orientation = "AB",
		},
		uuid = "706B6D90-6F23-4754-8412-CFF5958B1922",
	},
	version = 0,
}
