work_swift.lrtemplate
s = {
	id = "244670D4-4021-4600-9BE2-AFCBF45916E1",
	internalName = "ks_swift",
	title = "work_swift",
	type = "Develop",
	value = {
		settings = {
			AutoLateralCA = 0,
			Blacks2012 = 5,
			BlueHue = -55,
			BlueSaturation = -32,
			CameraProfile = "Embedded",
			ChromaticAberrationB = 0,
			ChromaticAberrationR = 0,
			CircularGradientBasedCorrections = {
				{
					CorrectionActive = true,
					CorrectionAmount = 1,
					CorrectionID = "022E0307-5D98-42D9-9D0E-F78A156429C6",
					CorrectionMasks = {
						{
							Angle = 0,
							Bottom = 0.93041,
							Feather = 50,
							Flipped = false,
							Left = 0.196616,
							MaskID = "58935E5D-1FBF-4DD4-8754-7AB3E59F8232",
							MaskValue = 1,
							Midpoint = 50,
							Right = 0.565821,
							Roundness = 0,
							Top = 0.144561,
							Version = 2,
							What = "Mask/CircularGradient",
						},
					},
					CorrectionReferenceX = 0.381219,
					CorrectionReferenceY = 0.537485,
					LocalBrightness = 0,
					LocalClarity = 0,
					LocalClarity2012 = -0.23711,
					LocalContrast = 0,
					LocalContrast2012 = 0,
					LocalDefringe = 0,
					LocalExposure = 0,
					LocalExposure2012 = 0,
					LocalHighlights2012 = 0,
					LocalLuminanceNoise = 0,
					LocalMoire = 0,
					LocalSaturation = 0.71134,
					LocalShadows2012 = 0,
					LocalSharpness = 0,
					LocalTemperature = 0,
					LocalTint = 0,
					LocalToningHue = 240,
					LocalToningSaturation = 0,
					What = "Correction",
				},
				{
					CorrectionActive = true,
					CorrectionAmount = 1,
					CorrectionID = "7B480E58-D8B2-4F0D-9D01-54D4D8610ED4",
					CorrectionMasks = {
						{
							Angle = 3.36304,
							Bottom = 0.435067,
							Feather = 50,
							Flipped = true,
							Left = 0.31656,
							MaskID = "9C144493-6096-49D1-AD16-0DEEA2B29FBA",
							MaskValue = 1,
							Midpoint = 50,
							Right = 0.382191,
							Roundness = 0,
							Top = 0.379196,
							Version = 2,
							What = "Mask/CircularGradient",
						},
					},
					CorrectionReferenceX = 0.349376,
					CorrectionReferenceY = 0.407131,
					LocalBrightness = 0,
					LocalClarity = 0,
					LocalClarity2012 = 0,
					LocalContrast = 0,
					LocalContrast2012 = 0,
					LocalDefringe = 0,
					LocalExposure = 0,
					LocalExposure2012 = -0.075,
					LocalHighlights2012 = 0,
					LocalLuminanceNoise = 0,
					LocalMoire = 0,
					LocalSaturation = 0,
					LocalShadows2012 = 0,
					LocalSharpness = 0,
					LocalTemperature = 0,
					LocalTint = 0,
					LocalToningHue = 240,
					LocalToningSaturation = 0,
					What = "Correction",
				},
			},
			Clarity2012 = 60,
			ColorNoiseReduction = 0,
			ColorNoiseReductionDetail = 50,
			ColorNoiseReductionSmoothness = 50,
			Contrast2012 = 12,
			ConvertToGrayscale = false,
			CropConstrainToWarp = 0,
			Defringe = 0,
			DefringeGreenAmount = 0,
			DefringeGreenHueHi = 60,
			DefringeGreenHueLo = 40,
			DefringePurpleAmount = 0,
			DefringePurpleHueHi = 70,
			DefringePurpleHueLo = 30,
			Dehaze = -9,
			EnableCalibration = true,
			EnableCircularGradientBasedCorrections = true,
			EnableColorAdjustments = true,
			EnableDetail = true,
			EnableEffects = true,
			EnableGradientBasedCorrections = true,
			EnableLensCorrections = true,
			EnableSplitToning = true,
			Exposure2012 = 0,
			GrainAmount = 0,
			GrainFrequency = 50,
			GrainSize = 25,
			GreenHue = 0,
			GreenSaturation = 0,
			Highlights2012 = 15,
			HueAdjustmentAqua = 0,
			HueAdjustmentBlue = 0,
			HueAdjustmentGreen = 0,
			HueAdjustmentMagenta = 0,
			HueAdjustmentOrange = 0,
			HueAdjustmentPurple = 0,
			HueAdjustmentRed = 0,
			HueAdjustmentYellow = 0,
			LensManualDistortionAmount = 0,
			LensProfileEnable = 0,
			LensProfileSetup = "LensDefaults",
			LuminanceAdjustmentAqua = 0,
			LuminanceAdjustmentBlue = 0,
			LuminanceAdjustmentGreen = 0,
			LuminanceAdjustmentMagenta = 0,
			LuminanceAdjustmentOrange = 0,
			LuminanceAdjustmentPurple = 0,
			LuminanceAdjustmentRed = -15,
			LuminanceAdjustmentYellow = 0,
			LuminanceNoiseReductionContrast = 0,
			LuminanceNoiseReductionDetail = 50,
			LuminanceSmoothing = 42,
			ParametricDarks = 0,
			ParametricHighlightSplit = 75,
			ParametricHighlights = 0,
			ParametricLights = 0,
			ParametricMidtoneSplit = 50,
			ParametricShadowSplit = 25,
			ParametricShadows = 0,
			PerspectiveAspect = 0,
			PerspectiveHorizontal = 0,
			PerspectiveRotate = 0,
			PerspectiveScale = 100,
			PerspectiveUpright = 0,
			PerspectiveVertical = 0,
			PostCropVignetteAmount = -21,
			PostCropVignetteFeather = 59,
			PostCropVignetteHighlightContrast = 0,
			PostCropVignetteMidpoint = 45,
			PostCropVignetteRoundness = 14,
			PostCropVignetteStyle = 1,
			ProcessVersion = "6.7",
			RedHue = 2,
			RedSaturation = -20,
			Saturation = -9,
			SaturationAdjustmentAqua = 0,
			SaturationAdjustmentBlue = 0,
			SaturationAdjustmentGreen = 0,
			SaturationAdjustmentMagenta = 0,
			SaturationAdjustmentOrange = 0,
			SaturationAdjustmentPurple = 0,
			SaturationAdjustmentRed = 15,
			SaturationAdjustmentYellow = 0,
			ShadowTint = 0,
			Shadows2012 = 0,
			SharpenDetail = 48,
			SharpenEdgeMasking = 0,
			SharpenRadius = 1.6,
			Sharpness = 70,
			SplitToningBalance = 0,
			SplitToningHighlightHue = 192,
			SplitToningHighlightSaturation = 15,
			SplitToningShadowHue = 348,
			SplitToningShadowSaturation = 9,
			Temperature = 5100,
			Tint = 5,
			ToneCurveName2012 = "Custom",
			ToneCurvePV2012 = {
				0,
				33,
				103,
				100,
				178,
				189,
				255,
				255,
			},
			ToneCurvePV2012Blue = {
				0,
				0,
				255,
				255,
			},
			ToneCurvePV2012Green = {
				0,
				0,
				255,
				255,
			},
			ToneCurvePV2012Red = {
				0,
				0,
				255,
				255,
			},
			Vibrance = 3,
			VignetteAmount = -73,
			VignetteMidpoint = 49,
			WhiteBalance = "Custom",
			Whites2012 = 16,
			orientation = "AB",
		},
		uuid = "6E51334B-A9BE-4865-837A-6F3BA18CFBFD",
	},
	version = 0,
}
